X: 341
T: reel du Li\`evre
R: reel
Z: 2012 John Chambers <jc:trillian.mit.edu>
M: C|
L: 1/8
K: G
   z2 | "G"gage dBGB | g2fg "D7"afdf | "G"gage ddgd |1,3 "D7"cBAd "G"BGG2 :|2,4 "D7"cBAF "G"G2 :|
|: BG | "G"DGBG cGBG | DGBG "C"EE=FE |1,3 "G"DGBG cGBG | "D7"AcAF "G"GA :|2,4 "G"DGBd cBcB | "D7"AFDF "G"G2 :|

